src/assets/images/arrowColored.svg

<svg width="20" height="20" fill="none" xmlns="http://www.w3.org/2000/svg"><path d="M10 0c5.52 0 10 4.48 10 10s-4.48 10-10 10S0 15.52 0 10 4.48 0 10 0Zm0 9H6v2h4v3l4-4-4-4v3Z" fill="#14D9E6"/></svg>

<svg width="20" height="20" viewBox="0 0 20 20" fill="none" xmlns="http://www.w3.org/2000/svg">
<path d="M10 0C15.52 0 20 4.48 20 10C20 15.52 15.52 20 10 20C4.48 20 0 15.52 0 10C0 4.48 4.48 0 10 0ZM10 9H6V11H10V14L14 10L10 6V9Z" fill="#14D9E6"/>
</svg>
